dist/img/footer/youtube.svg

<svg width="26" height="26" viewBox="0 0 26 26" fill="none" xmlns="http://www.w3.org/2000/svg">
<path d="M24.375 12.9288C24.375 12.8729 24.375 12.8095 24.3725 12.7358C24.3699 12.5302 24.3648 12.2991 24.3598 12.0528C24.3395 11.3444 24.3039 10.6386 24.248 9.97334C24.1719 9.05674 24.0602 8.29248 23.9078 7.71865C23.747 7.11981 23.4319 6.57366 22.9939 6.13478C22.5559 5.69589 22.0104 5.37966 21.4119 5.21768C20.6934 5.02471 19.2867 4.90537 17.3062 4.83174C16.3643 4.79619 15.3562 4.77334 14.3482 4.76064C13.9953 4.75557 13.6678 4.75303 13.3732 4.75049H12.6268C12.3322 4.75303 12.0047 4.75557 11.6518 4.76064C10.6438 4.77334 9.63574 4.79619 8.69375 4.83174C6.71328 4.90791 5.3041 5.02725 4.58809 5.21768C3.98938 5.37926 3.44365 5.69536 3.0056 6.13431C2.56755 6.57325 2.25255 7.11962 2.09219 7.71865C1.9373 8.29248 1.82812 9.05674 1.75195 9.97334C1.69609 10.6386 1.66055 11.3444 1.64023 12.0528C1.63262 12.2991 1.63008 12.5302 1.62754 12.7358C1.62754 12.8095 1.625 12.8729 1.625 12.9288V13.071C1.625 13.1269 1.625 13.1903 1.62754 13.264C1.63008 13.4696 1.63516 13.7007 1.64023 13.947C1.66055 14.6554 1.69609 15.3612 1.75195 16.0265C1.82812 16.9431 1.93984 17.7073 2.09219 18.2811C2.41719 19.4974 3.37187 20.4571 4.58809 20.7821C5.3041 20.9751 6.71328 21.0944 8.69375 21.1681C9.63574 21.2036 10.6438 21.2265 11.6518 21.2392C12.0047 21.2442 12.3322 21.2468 12.6268 21.2493H13.3732C13.6678 21.2468 13.9953 21.2442 14.3482 21.2392C15.3562 21.2265 16.3643 21.2036 17.3062 21.1681C19.2867 21.0919 20.6959 20.9726 21.4119 20.7821C22.6281 20.4571 23.5828 19.4999 23.9078 18.2811C24.0627 17.7073 24.1719 16.9431 24.248 16.0265C24.3039 15.3612 24.3395 14.6554 24.3598 13.947C24.3674 13.7007 24.3699 13.4696 24.3725 13.264C24.3725 13.1903 24.375 13.1269 24.375 13.071V12.9288ZM22.5469 13.0608C22.5469 13.1142 22.5469 13.1726 22.5443 13.2411C22.5418 13.4392 22.5367 13.6575 22.5316 13.8937C22.5139 14.569 22.4783 15.2444 22.425 15.8716C22.3564 16.6892 22.26 17.3595 22.1406 17.8089C21.9832 18.3954 21.5211 18.8601 20.9371 19.0149C20.4039 19.1571 19.0607 19.2714 17.2352 19.3399C16.3109 19.3755 15.3156 19.3983 14.3229 19.411C13.975 19.4161 13.6525 19.4186 13.3631 19.4186H12.6369L11.6771 19.411C10.6844 19.3983 9.6916 19.3755 8.76484 19.3399C6.93926 19.2688 5.59355 19.1571 5.06289 19.0149C4.47891 18.8575 4.0168 18.3954 3.85938 17.8089C3.74004 17.3595 3.64355 16.6892 3.575 15.8716C3.52168 15.2444 3.48867 14.569 3.46836 13.8937C3.46074 13.6575 3.4582 13.4366 3.45566 13.2411C3.45566 13.1726 3.45312 13.1116 3.45312 13.0608V12.939C3.45312 12.8856 3.45313 12.8272 3.45566 12.7587C3.4582 12.5606 3.46328 12.3423 3.46836 12.1061C3.48613 11.4308 3.52168 10.7554 3.575 10.1282C3.64355 9.31064 3.74004 8.64033 3.85938 8.19092C4.0168 7.60439 4.47891 7.13975 5.06289 6.98486C5.59609 6.84268 6.93926 6.72842 8.76484 6.65986C9.68906 6.62432 10.6844 6.60146 11.6771 6.58877C12.025 6.58369 12.3475 6.58115 12.6369 6.58115H13.3631L14.3229 6.58877C15.3156 6.60146 16.3084 6.62432 17.2352 6.65986C19.0607 6.73096 20.4064 6.84268 20.9371 6.98486C21.5211 7.14228 21.9832 7.60439 22.1406 8.19092C22.26 8.64033 22.3564 9.31064 22.425 10.1282C22.4783 10.7554 22.5113 11.4308 22.5316 12.1061C22.5393 12.3423 22.5418 12.5632 22.5443 12.7587C22.5443 12.8272 22.5469 12.8882 22.5469 12.939V13.0608ZM10.7402 16.4022L16.6309 12.9745L10.7402 9.59756V16.4022Z" fill="white"/>
</svg>

<svg width="26" height="26" fill="none" xmlns="http://www.w3.org/2000/svg"><path d="M24.375 12.929c0-.056 0-.12-.003-.193-.002-.206-.007-.437-.012-.683a38.175 38.175 0 00-.112-2.08c-.076-.916-.188-1.68-.34-2.254a3.543 3.543 0 00-2.496-2.501c-.719-.193-2.125-.313-4.106-.386-.942-.036-1.95-.059-2.958-.071-.353-.005-.68-.008-.975-.01h-.746c-.295.002-.622.005-.975.01-1.008.012-2.016.035-2.958.07-1.98.077-3.39.196-4.106.387a3.538 3.538 0 00-2.496 2.5c-.155.574-.264 1.339-.34 2.255a38.237 38.237 0 00-.112 2.08c-.007.246-.01.477-.012.683 0 .073-.003.137-.003.193v.142c0 .056 0 .12.003.193.002.206.007.437.012.683.02.708.056 1.414.112 2.08.076.916.188 1.68.34 2.254a3.538 3.538 0 002.496 2.501c.716.193 2.125.312 4.106.386.942.036 1.95.059 2.958.071.353.005.68.008.975.01h.746c.295-.002.622-.005.975-.01 1.008-.012 2.016-.035 2.958-.07 1.98-.077 3.39-.196 4.106-.387a3.534 3.534 0 002.496-2.5c.155-.575.264-1.339.34-2.256a38.18 38.18 0 00.112-2.079c.007-.246.01-.477.012-.683 0-.074.003-.137.003-.193v-.142zm-1.828.132c0 .053 0 .112-.003.18-.002.198-.007.417-.012.653a34.29 34.29 0 01-.107 1.978c-.069.817-.165 1.488-.284 1.937a1.708 1.708 0 01-1.204 1.206c-.533.142-1.876.256-3.702.325a115.139 115.139 0 01-3.872.079h-.726l-.96-.008a115.42 115.42 0 01-2.912-.071c-1.826-.071-3.171-.183-3.702-.325a1.713 1.713 0 01-1.204-1.206c-.119-.45-.215-1.12-.284-1.937a36.782 36.782 0 01-.107-1.978c-.007-.236-.01-.457-.012-.653 0-.068-.003-.13-.003-.18v-.122c0-.053 0-.112.003-.18.002-.198.007-.417.012-.653.018-.675.054-1.35.107-1.978.069-.817.165-1.488.284-1.937a1.708 1.708 0 011.204-1.206c.533-.142 1.876-.257 3.702-.325a115.362 115.362 0 013.872-.079h.726l.96.008c.993.012 1.985.035 2.912.07 1.826.072 3.171.184 3.702.326.584.157 1.046.62 1.204 1.206.119.45.215 1.12.284 1.937.053.627.086 1.303.107 1.978.007.236.01.457.012.653 0 .068.003.13.003.18v.122zM10.74 16.402l5.89-3.428-5.89-3.376v6.804z" fill="#fff"/></svg>
